X: 1
T: Jump At the Sun
C: John Kirkpatrick 1972
M: 6/8
R: jig
K:Em
"Em"EGB ^A2B| EGB ^A2B| eBB eBB| "Em"BAG "B7"F3|
"Em"EGB ^A2B| EGB ^A2B| "Em"eBB "Am"cBA| "B7"GAF "Em"E3:|
|:\
B| "Em"eBB gfe| "B7"fBB agf| "Em"gfe gfe| "B"fBB "B7"c2B|
   "Em"eBB gfe| "B7"fBB agf| "Em"eBB "Am"cBA| "B7"GAF "Em"E2:|
